X: 78
T: You Need Not Fear the Horse
N: Derived from pawnee78.krn
O: Oklahoma, U.S.A.
N: from Pawnee Music by Frances Densmore, 1926
Z: transcribed to **kern format by David Huron, August 2000
C: Skidi and Chaui Bands, 1919
L: 1/8
M: 3/4
Q: 1/4=88
K: A clef=treble
%%linebreak <none>
F F [I:setbarnb 1]| 
A2(A F) A A | 
A4(3A A A | 
F2F3F | 
F4F F | 
A2(A F) A A | 
(F4-F3/ C/) | 
C CC2A,2 | 
A, A,A,2!fermata!G,2 | 
F,4F, F, | 
A,2(A, G,) A, A, | 
F,2>A,2A,2 | 
F, A,/ F,/F,3F,/ F,3/ | 
F,4 |]  



